web/ui/src/assets/svgs/sort/close.svg

<svg height="10" viewBox="0 0 10 10" width="10" xmlns="http://www.w3.org/2000/svg"><g fill="none" fill-rule="evenodd"><rect fill="#000" fill-opacity=".04" height="21" rx="2" stroke="#b9cfe6" width="168" x="-148.5" y="-5.5"/><g><path d="m0 0h10v10h-10z" fill="#000" fill-rule="nonzero" opacity="0"/><path d="m5.50585937 5 2.56347657-3.05566406c.04296875-.05078125.00683593-.12792969-.05957032-.12792969h-.77929687c-.04589844 0-.08984375.02050781-.12011719.05566406l-2.11425781 2.52050781-2.11425781-2.52050781c-.02929688-.03515625-.07324219-.05566406-.12011719-.05566406h-.77929688c-.06640625 0-.10253906.07714844-.05957031.12792969l2.56347656 3.05566406-2.56347656 3.05566406c-.04296875.05078125-.00683594.12792969.05957031.12792969h.77929688c.04589844 0 .08984375-.02050781.12011719-.05566406l2.11425781-2.52050782 2.11425781 2.52050782c.02929688.03515625.07324219.05566406.12011719.05566406h.77929687c.06640625 0 .10253907-.07714844.05957032-.12792969z" fill="#082340"/></g></g></svg>

<?xml version="1.0" encoding="UTF-8"?>
<svg width="10px" height="10px" viewBox="0 0 10 10" version="1.1" xmlns="http://www.w3.org/2000/svg" xmlns:xlink="http://www.w3.org/1999/xlink">
    <title>图标</title>
    <g id="页面-1" stroke="none" stroke-width="1" fill="none" fill-rule="evenodd">
        <g id="建木自动化-组详情-添加项目" transform="translate(-502.000000, -320.000000)">
            <g id="编组-26" transform="translate(309.000000, 100.000000)">
                <g id="4.数据展示/8.Tag标签/删除备份" transform="translate(44.000000, 214.000000)">
                    <rect id="背景" stroke="#B9CFE6" fill-opacity="0.04" fill="#000000" x="0.5" y="0.5" width="168" height="21" rx="2"></rect>
                    <g id="图标" transform="translate(149.000000, 6.000000)">
                        <rect id="矩形" fill="#000000" fill-rule="nonzero" opacity="0" x="0" y="0" width="10" height="10"></rect>
                        <path d="M5.50585937,5 L8.06933594,1.94433594 C8.11230469,1.89355469 8.07617187,1.81640625 8.00976562,1.81640625 L7.23046875,1.81640625 C7.18457031,1.81640625 7.140625,1.83691406 7.11035156,1.87207031 L4.99609375,4.39257812 L2.88183594,1.87207031 C2.85253906,1.83691406 2.80859375,1.81640625 2.76171875,1.81640625 L1.98242187,1.81640625 C1.91601562,1.81640625 1.87988281,1.89355469 1.92285156,1.94433594 L4.48632812,5 L1.92285156,8.05566406 C1.87988281,8.10644531 1.91601562,8.18359375 1.98242187,8.18359375 L2.76171875,8.18359375 C2.80761719,8.18359375 2.8515625,8.16308594 2.88183594,8.12792969 L4.99609375,5.60742187 L7.11035156,8.12792969 C7.13964844,8.16308594 7.18359375,8.18359375 7.23046875,8.18359375 L8.00976562,8.18359375 C8.07617187,8.18359375 8.11230469,8.10644531 8.06933594,8.05566406 L5.50585937,5 Z" id="路径" fill="#082340"></path>
                    </g>
                </g>
            </g>
        </g>
    </g>
</svg>
